X:1
T:La Llorona
T:La Llorona
T:MuseScore
Z:MuseScore
L:1/8
M:3/4
K:F
V:1 treble nm="Piano" snm="Pno."
V:1
"Dm""^Section A\n"!mf! !3!F!2!E !1!D!2!E !3!F2- | F!5!A !4!G!3!F !2!E!1!D | %2
"C" !3!C!2!=B, !1!C!2!D !3!E2- | E!5!G !4!F!3!E !2!D!1!C |"Bb" !3!B,!2!A, !3!B,!4!C !5!D2- | %5
 D!4!D !5!E!4!D !3!^C!4!D |"A7" !5!E2 !5!E!3!^C !1!A,2 | z A, =B,^C DE | %8
"Dm" !3!F!2!E !1!D!2!E !3!F2- | F!5!A !4!G!3!F !2!E!1!D |"C" !3!C!2!=B, !1!C!2!D !3!E2- | %11
 E!5!G !4!F!3!E !2!D!1!C |"Bb" !3!B,!2!A, !3!B,!4!C !5!D2- | D!4!D !5!E!4!D !3!^C!4!D | %14
"A7" !5!E2 !5!E!3!^C !1!A,2 | z6 | !3!A2 !4!B2 !3!A2 | !2!G2 !1!F2"_Over" !3!E2 | %18
"Dm" !2!D2 z4!fine! |"A7" z6 |"Dm" z6 |"A7" z6 |:"Dm""^Section B\n"!mp! !1!A,3 A, A,2 | A,4 A,2 | %24
"Gm" !3!C2 !2!B,3 !1!A, | !3!C2 !2!B,2 z2 |"Dm" !1!A,3 A, A,2 | !2!B,4 !1!A,2 |"A7" !1!A,2 !2!G,4 | %29
 z6 |"Dm" !1!A,3 A, A,2 | A,2 !4!D3 !3!C |"Gm" !3!C2 !2!B,3 !1!A, | C2 B,2 z2 |"Dm" A,3 A, A,2 | %35
 B,4 A,2 |"A7" A,2 G,4 | z2 z2 A,2 |"Dm""^Section C"!f! !3!D3 D D2 | !5!F4 F2 |"C" E2 !2!C3 D | %41
 E2 !2!C2 z2 |"Bb" !2!B,3 B, B,2 | D4 D2 |"A7" ^C2 A,4 | z2 z2 A,2 |"Dm" !3!D3 D D2 | !5!F4 F2 | %48
"C" E2 !2!C3 D | E2 !2!C2 z2 |"Bb" !2!B,3 B, B,2 | D4 D2 |"A7" ^C2 A,4 | z2 z4!D.C.! :| %54

